packages/client-app/static/animations/inbox-zero/airstrip/airstrip.hyperesources/endstripes.svg

<svg xmlns="http://www.w3.org/2000/svg" preserveAspectRatio="xMidYMid" width="60.781" height="60.25" viewBox="0 0 60.781 60.25"><defs><style>.cls-1 { fill: #d7d7d7; fill-rule: evenodd; }</style></defs><path d="M44.297 60.254l-4.287-4.286 16.475-16.476 4.287 4.287-16.475 16.475zm-14.287-14.286l16.475-16.476 4.287 4.287-16.475 16.475-4.287-4.286zm-10-9.501l16.476-16.475 4.286 4.287-16.475 16.475-4.287-4.287zm-10-10l16.476-16.475 4.286 4.287-16.475 16.475-4.287-4.287zm-10-9.999l16.475-16.476 4.287 4.287-16.475 16.475-4.287-4.286z" class="cls-1"/></svg>

<svg xmlns="http://www.w3.org/2000/svg" xmlns:xlink="http://www.w3.org/1999/xlink" preserveAspectRatio="xMidYMid" width="60.781" height="60.25" viewBox="0 0 60.781 60.25">
  <defs>
    <style>
      .cls-1 {
        fill: #d7d7d7;
        fill-rule: evenodd;
      }
    </style>
  </defs>
  <path d="M44.297,60.254 L40.010,55.968 L56.485,39.492 L60.772,43.779 L44.297,60.254 ZM30.010,45.968 L46.485,29.492 L50.772,33.779 L34.297,50.254 L30.010,45.968 ZM20.010,36.467 L36.486,19.992 L40.772,24.279 L24.297,40.754 L20.010,36.467 ZM10.010,26.467 L26.486,9.992 L30.772,14.279 L14.297,30.754 L10.010,26.467 ZM0.010,16.468 L16.485,-0.008 L20.772,4.279 L4.297,20.754 L0.010,16.468 Z" class="cls-1"/>
</svg>
